X:135
T: Winding Hills of Sligo
S: "First Collection of Traditional Irish Music" (M.Mulvihill)
Z: B.Black
L: 1/8
M: 4/4
R: reel
K: G
B|dG (3GFG dGeG|dG (3GFG AGED|GFGA BABc|dega bage|
dG (3GFG dGeG|dG (3GFG AGED|GFGA BABc|defa g3 :|
f|g2 ag eg (3gfg|dBGB AE (3EDE|g2 ag eg (3gfg|\
eaag agef|
g2 ag eg (3gfg|dBGB AE (3EDE|G3 A BABc|defa g3 :|
